X: 40599
T: Ton Double Gavotte
R: slide
M: 12/8
K: Bminor
|:BA<B c3/2d3/2 e3/2f3/2 d3/2f3/2|e3/2c3/2 e3/2d3/2 B3 B3:|
|:f2 g f3/2e3/2 d3/2e3/2 f3|f/e d3/2 c3/2d3/2 e3/2f3/2 d3/2f3/2|
BA<B c3/2d3/2 e3/2f3/2 d3/2f3/2|e3/2c3/2 e3/2d3/2 B3 B3:|

